X: 6
T: The Peacock's Feathers
R: hornpipe
M: 4/4
L: 1/8
K: Gmaj
ed|:cABG A2AB|cBce d2cd|eaag aged|c2EF G2ed|
(3cBA (3BAG A2AB|cB (3cde d2cd|eaab aged|[1c2A2 A2 ed:|[2cAAG A2ef|]
g3e a3g|agec d2cd|eaag aged|c2 EF G2ed|
cABG A2AB|cABc d2cd|eaag aged|[1c2AG A2 ef|[2cAAG A2:||


Tune 663	Setting 663

